X: 4177
T: HUMOURS OF ENNISTYMON
%R: reel
B: James Kerr "Merry Melodies" v.4 p.20 #177
Z: 2016 John Chambers <jc:trillian.mit.edu>
N: The 1st (low) G in the 2nd strain's 2nd bar should be G natural; not fixed.
N: THe last 2 notes (cB) are dups of the pickup, and should be deleted.
M: C|
L: 1/8
K: Em	% and/or A dorian
cB |\
BE (3EEE cABG | (3(EFG) (DB,) B,DB,D |\
(3A,A,A, (A,B,) CDEG | AcB^G A2 :|\
(AB) |:\
Aaa^g ae^cA |
G=ggf gedB |\
[1 Aaa^g a=gef | gedB BAAB :|\
[2 gfef gfga | bagf edcB |]

%%sep 1 1 500
%%sep 1 1 500

